!!!SOCIAL_FUNCTION:	bird dance songs
!!!PDT:	1956
!!!OTL: No_175_Steal_Partner_Dance_Song_(d).krn
!!!LANG: Non-Tone
!!!LING_GROUP: Muskogean
!!!REG: Florida
**kern
*staff1
=1-
*clefF4
*k[f#]
*M2/4
8.r
16G\
8.G\L
16G\Jk
=2
4d\
4d\
=3||
*M3/4
8B\
4r
16r
16G\
8.G\L
16G\Jk
=4||
*M2/4
4d\
4d\
=5||
*M3/4
8.B\L
16c\Jk
8d\L
16B\L
16B\JJ
4B\
=6||
*M2/4
8G\L
8G\J
16G\
8r
16G\
=7
12B\L
12G\
12B\J
4B\
=8
8G\L
8G\J
4G\
=9
16G\LL
16D\
16D\JJ
16r
4r
=10||
*M3/4
8G\L
8G\J
4G\
8.G\L
16B\Jk
=11||
*M2/4
12B\L
12G\
12G\J
4B\
=12||
*M3/4
8G\L
8G\J
4G\
12G\L
12D\
24G\Jk
24r
=13||
*M2/4
4G\
4G\
=14
8.G\L
16G\Jk
8.G\L
16G\Jk
=15
4d\
4r
==
*-
